images/why_1.svg

<?xml version="1.0" encoding="iso-8859-1"?>
<!-- Generator: Adobe Illustrator 19.0.0, SVG Export Plug-In . SVG Version: 6.00 Build 0)  -->
<svg version="1.1" id="Capa_1" xmlns="http://www.w3.org/2000/svg" xmlns:xlink="http://www.w3.org/1999/xlink" x="0px" y="0px"
	 viewBox="0 0 511.995 511.995" style="enable-background:new 0 0 511.995 511.995;" xml:space="preserve">
<g>
	<g>
		<path d="M289.437,23.138c-4.468-10.497-13.268-18.47-24.541-21.975c-16.492-4.306-33.87,3.641-41.425,18.862
			c-12.339,24.789-18.785,52.545-18.632,80.199v266.817c0,0.537,0.051,1.074,0.154,1.612l22.955,118.938
			c1.936,13.925,13.993,24.405,28.029,24.405c0.009,0,0.026,0,0.043,0c14.053,0,26.102-10.488,27.961-23.961l23.023-119.381
			c0.111-0.529,0.162-1.074,0.162-1.612V100.207C307.106,73.526,300.915,46.742,289.437,23.138z M290.111,366.214l-22.938,119.023
			c-0.767,5.534-5.568,9.704-11.179,9.704c-5.602,0-10.395-4.17-11.222-10.139l-22.87-118.58V100.182
			c-0.136-25.044,5.688-50.14,16.85-72.567c3.991-8.033,13.2-12.22,21.454-10.062c6.097,1.902,11.043,6.37,13.712,12.637
			c10.54,21.702,16.133,45.919,16.193,70.034V366.214z"/>
	</g>
</g>
<g>
	<g>
		<path d="M217.732,189.163c-2.584-1.543-5.799-1.603-8.425-0.171L4.654,299.847c-2.754,1.492-4.468,4.366-4.468,7.495v51.163
			c0,2.797,1.364,5.406,3.667,7.009c1.45,0.998,3.147,1.518,4.861,1.518c1.006,0,2.021-0.171,2.993-0.537l204.653-76.745
			c3.326-1.253,5.534-4.434,5.534-7.99v-85.272C221.893,193.487,220.316,190.707,217.732,189.163z M204.839,275.851L17.24,346.201
			v-33.776l187.599-101.61V275.851z"/>
	</g>
</g>
<g>
	<g>
		<path d="M507.35,299.847L302.697,188.993c-2.643-1.424-5.841-1.373-8.425,0.171c-2.575,1.535-4.161,4.315-4.161,7.325v85.272
			c0,3.556,2.2,6.745,5.526,7.99l204.653,76.745c0.981,0.358,1.995,0.537,3.002,0.537c1.714,0,3.411-0.512,4.843-1.518
			c2.302-1.595,3.675-4.212,3.675-7.009v-51.163C511.81,304.213,510.096,301.339,507.35,299.847z M494.764,346.201l-187.599-70.35
			v-65.046l187.599,101.619V346.201z"/>
	</g>
</g>
<g>
	<g>
		<path d="M136.621,196.497c-14.104,0-25.582,11.478-25.582,25.582v25.582h17.054v-25.582c0-4.699,3.829-8.527,8.527-8.527
			s8.527,3.829,8.527,8.527v8.527h17.054v-8.527C162.203,207.974,150.725,196.497,136.621,196.497z"/>
	</g>
</g>
<g>
	<g>
		<path d="M59.876,239.124c-14.104,0-25.582,11.478-25.582,25.582v25.582h17.054v-25.582c0-4.698,3.829-8.519,8.527-8.519
			c4.698,0,8.527,3.82,8.527,8.519h17.054C85.458,250.602,73.98,239.124,59.876,239.124z"/>
	</g>
</g>
<g>
	<g>
		<path d="M375.383,196.497c-14.104,0-25.582,11.478-25.582,25.582v8.527h17.054v-8.527c0-4.699,3.82-8.527,8.527-8.527
			c4.707,0,8.527,3.829,8.527,8.527v25.582h17.054v-25.582C400.965,207.974,389.487,196.497,375.383,196.497z"/>
	</g>
</g>
<g>
	<g>
		<path d="M452.128,239.124c-14.104,0-25.582,11.478-25.582,25.582h17.054c0-4.698,3.82-8.519,8.527-8.519
			c4.707,0,8.527,3.82,8.527,8.519v25.582h17.054v-25.582C477.71,250.602,466.232,239.124,452.128,239.124z"/>
	</g>
</g>
<g>
	<g>
		<path d="M237.532,478.006l-92.392,15.4v-19.212l81.137-48.682l-8.775-14.624l-85.272,51.163c-2.567,1.535-4.136,4.306-4.136,7.308
			v34.109c0,2.507,1.109,4.895,3.019,6.506c1.552,1.313,3.505,2.021,5.509,2.021c0.46,0,0.929-0.043,1.39-0.111l102.327-17.054
			L237.532,478.006z"/>
	</g>
</g>
<g>
	<g>
		<path d="M379.766,462.051l-85.272-51.163l-8.774,14.624l81.137,48.682v19.203l-92.401-15.4l-2.797,16.824l102.327,17.054
			c0.469,0.077,0.929,0.119,1.398,0.119c2.004,0,3.957-0.708,5.5-2.021c1.919-1.62,3.019-3.999,3.019-6.506v-34.109
			C383.902,466.366,382.333,463.595,379.766,462.051z"/>
	</g>
</g>
<g>
	<g>
		<path d="M275.333,65.45c-2.788-8.348-10.744-13.712-19.425-13.925c-9.047,0.085-16.824,5.978-19.246,14.309l-5.799,17.054
			l16.151,5.492l5.909-17.413c0.418-1.415,1.68-2.379,3.087-2.388c1.433,0,2.695,0.912,3.147,2.251l5.799,17.481l16.185-5.364
			L275.333,65.45z"/>
	</g>
</g>
<g>
</g>
<g>
</g>
<g>
</g>
<g>
</g>
<g>
</g>
<g>
</g>
<g>
</g>
<g>
</g>
<g>
</g>
<g>
</g>
<g>
</g>
<g>
</g>
<g>
</g>
<g>
</g>
<g>
</g>
</svg>

<svg width="512" height="512" viewBox="0 0 512 512" fill="none" xmlns="http://www.w3.org/2000/svg">
<g clip-path="url(#clip0_74_2)">
<path d="M289.437 23.138C284.969 12.641 276.169 4.66801 264.896 1.16301C248.404 -3.14299 231.026 4.80401 223.471 20.025C211.132 44.814 204.686 72.57 204.839 100.224V367.041C204.839 367.578 204.89 368.115 204.993 368.653L227.948 487.591C229.884 501.516 241.941 511.996 255.977 511.996C255.986 511.996 256.003 511.996 256.02 511.996C270.073 511.996 282.122 501.508 283.981 488.035L307.004 368.654C307.115 368.125 307.166 367.58 307.166 367.042V100.207C307.106 73.526 300.915 46.742 289.437 23.138ZM290.111 366.214L267.173 485.237C266.406 490.771 261.605 494.941 255.994 494.941C250.392 494.941 245.599 490.771 244.772 484.802L221.902 366.222V100.182C221.766 75.138 227.59 50.042 238.752 27.615C242.743 19.582 251.952 15.395 260.206 17.553C266.303 19.455 271.249 23.923 273.918 30.19C284.458 51.892 290.051 76.109 290.111 100.224V366.214V366.214Z" fill="#783178"/>
<path d="M217.732 189.163C215.148 187.62 211.933 187.56 209.307 188.992L4.654 299.847C1.9 301.339 0.186 304.213 0.186 307.342V358.505C0.186 361.302 1.55 363.911 3.853 365.514C5.303 366.512 7 367.032 8.714 367.032C9.72 367.032 10.735 366.861 11.707 366.495L216.36 289.75C219.686 288.497 221.894 285.316 221.894 281.76V196.488C221.893 193.487 220.316 190.707 217.732 189.163ZM204.839 275.851L17.24 346.201V312.425L204.839 210.815V275.851Z" fill="#783178"/>
<path d="M507.35 299.847L302.697 188.993C300.054 187.569 296.856 187.62 294.272 189.164C291.697 190.699 290.111 193.479 290.111 196.489V281.761C290.111 285.317 292.311 288.506 295.637 289.751L500.29 366.496C501.271 366.854 502.285 367.033 503.292 367.033C505.006 367.033 506.703 366.521 508.135 365.515C510.437 363.92 511.81 361.303 511.81 358.506V307.343C511.81 304.213 510.096 301.339 507.35 299.847ZM494.764 346.201L307.165 275.851V210.805L494.764 312.424V346.201Z" fill="#783178"/>
<path d="M136.621 196.497C122.517 196.497 111.039 207.975 111.039 222.079V247.661H128.093V222.079C128.093 217.38 131.922 213.552 136.62 213.552C141.318 213.552 145.147 217.381 145.147 222.079V230.606H162.201V222.079C162.203 207.974 150.725 196.497 136.621 196.497Z" fill="#783178"/>
<path d="M59.876 239.124C45.772 239.124 34.294 250.602 34.294 264.706V290.288H51.348V264.706C51.348 260.008 55.177 256.187 59.875 256.187C64.573 256.187 68.402 260.007 68.402 264.706H85.456C85.458 250.602 73.98 239.124 59.876 239.124Z" fill="#783178"/>
<path d="M375.383 196.497C361.279 196.497 349.801 207.975 349.801 222.079V230.606H366.855V222.079C366.855 217.38 370.675 213.552 375.382 213.552C380.089 213.552 383.909 217.381 383.909 222.079V247.661H400.963V222.079C400.965 207.974 389.487 196.497 375.383 196.497Z" fill="#783178"/>
<path d="M452.128 239.124C438.024 239.124 426.546 250.602 426.546 264.706H443.6C443.6 260.008 447.42 256.187 452.127 256.187C456.834 256.187 460.654 260.007 460.654 264.706V290.288H477.708V264.706C477.71 250.602 466.232 239.124 452.128 239.124Z" fill="#783178"/>
<path d="M237.532 478.006L145.14 493.406V474.194L226.277 425.512L217.502 410.888L132.23 462.051C129.663 463.586 128.094 466.357 128.094 469.359V503.468C128.094 505.975 129.203 508.363 131.113 509.974C132.665 511.287 134.618 511.995 136.622 511.995C137.082 511.995 137.551 511.952 138.012 511.884L240.339 494.83L237.532 478.006Z" fill="#783178"/>
<path d="M379.766 462.051L294.494 410.888L285.72 425.512L366.857 474.194V493.397L274.456 477.997L271.659 494.821L373.986 511.875C374.455 511.952 374.915 511.994 375.384 511.994C377.388 511.994 379.341 511.286 380.884 509.973C382.803 508.353 383.903 505.974 383.903 503.467V469.358C383.902 466.366 382.333 463.595 379.766 462.051Z" fill="#783178"/>
<path d="M275.333 65.4499C272.545 57.1019 264.589 51.7379 255.908 51.5249C246.861 51.6099 239.084 57.5029 236.662 65.8339L230.863 82.8879L247.014 88.3799L252.923 70.9669C253.341 69.5519 254.603 68.5879 256.01 68.5789C257.443 68.5789 258.705 69.4909 259.157 70.8299L264.956 88.3109L281.141 82.9469L275.333 65.4499Z" fill="#783178"/>
</g>
<defs>
<clipPath id="clip0_74_2">
<rect width="511.995" height="511.995" fill="white"/>
</clipPath>
</defs>
</svg>
